svg/power_cycle.svg

<svg xmlns="http://www.w3.org/2000/svg" viewBox="0 0 24 24"><path d="M12 3a9 9 0 0 0-9 9 9 9 0 0 0 9 9 9 9 0 0 0 9-9 9 9 0 0 0-9-9m0 16a7 7 0 0 1-7-7 7 7 0 0 1 7-7 7 7 0 0 1 7 7 7 7 0 0 1-7 7m1-2h-2V7h2z"/></svg>

<?xml version="1.0" encoding="UTF-8"?><!DOCTYPE svg PUBLIC "-//W3C//DTD SVG 1.1//EN" "http://www.w3.org/Graphics/SVG/1.1/DTD/svg11.dtd"><svg xmlns="http://www.w3.org/2000/svg" xmlns:xlink="http://www.w3.org/1999/xlink" version="1.1" id="mdi-power-cycle" width="24" height="24" viewBox="0 0 24 24"><path d="M12,3A9,9 0 0,0 3,12A9,9 0 0,0 12,21A9,9 0 0,0 21,12A9,9 0 0,0 12,3M12,19A7,7 0 0,1 5,12A7,7 0 0,1 12,5A7,7 0 0,1 19,12A7,7 0 0,1 12,19M13,17H11V7H13V17Z" /></svg>
